_includes/svg/icon-meetup.svg

<?xml version="1.0" encoding="UTF-8" standalone="no"?>
<svg
class="icon icon-meetup"
width="89px" height="32px" viewBox="0 0 89 32" version="1.1" xmlns="http://www.w3.org/2000/svg" xmlns:xlink="http://www.w3.org/1999/xlink">
    <!-- Generator: Sketch 45.2 (43514) - http://www.bohemiancoding.com/sketch -->
    <title>meetup-logo</title>
    <desc>Created with Sketch.</desc>
    <defs></defs>
    <g id="Layout" stroke="none" stroke-width="1" fill="none" fill-rule="evenodd">
        <g id="hfla-web-desktop" transform="translate(-186.000000, -2796.000000)" fill-rule="nonzero" fill="#FFFFFF">
            <g id="meetup-logo" transform="translate(186.000000, 2796.000000)">
                <path d="M52.3726637,17.1019671 C52.2504674,17.2866647 52.1724524,17.4133254 52.0873742,17.5353303 C51.2926517,18.6735864 50.400861,19.712845 49.1851958,20.432008 C47.555715,21.3953403 45.7895605,21.7927015 43.9486756,21.3936821 C43.0041096,21.1887514 42.1253134,20.6601056 41.235707,20.2383179 C41.0306647,20.1415526 40.9185929,20.1390972 40.7363348,20.2466726 C39.9732935,20.6967294 39.231139,21.2012038 38.4232147,21.5510992 C36.9892257,22.1719023 35.4792945,22.5197409 33.9186447,22.106866 C32.9404365,21.8480598 32.0942302,21.2969327 31.329722,20.633989 C30.7875556,20.1639701 30.7527334,20.1643847 30.2028341,20.6166736 C29.2140708,21.4303219 28.072578,21.9549497 26.8781186,22.3883288 C25.3964405,22.9264136 23.8683807,23.2561236 22.3055147,23.4109098 C20.3986527,23.599705 18.6304733,23.2758625 17.3400618,21.7083568 C16.3056981,20.4523687 16.0290822,18.9953881 16.6618595,17.4807693 C17.3549377,15.8223498 18.1563408,14.208558 18.9089068,12.5753941 C19.3013094,11.7245002 19.6962631,10.8744195 20.076867,10.0184554 C20.1464793,9.86121375 20.1746208,9.67775984 20.182561,9.50419133 C20.1974529,9.18506826 20.2623936,8.83555556 19.8933971,8.64353961 C19.5163966,8.44801594 19.0715855,8.48326856 18.7952407,8.83294071 C18.4488052,9.27041754 18.1423099,9.74960438 17.8844604,10.2449108 C17.030298,11.8844046 16.2038944,13.5389656 15.3707145,15.1892058 C14.7456861,16.4266348 14.1326477,17.6695645 13.5019273,18.9037887 C12.9043548,20.0744434 11.7811659,20.5204664 10.5638904,20.0652436 C10.1538854,19.9113024 9.89670553,19.608857 9.82761933,19.1487872 C9.72988142,18.4960638 9.94391629,17.9115336 10.1754738,17.3272267 C10.6811599,16.0490762 11.1933991,14.7733333 11.6988779,13.4947683 C11.9695625,12.8092476 12.2404225,12.123153 12.4945571,11.4313184 C12.6725899,10.9475874 12.7260827,10.434567 12.5184096,9.95941405 C12.3576921,9.59306428 12.0413911,9.32831091 11.5976642,9.3676293 C11.1130882,9.4105989 10.7318625,9.66374489 10.5491898,10.1136582 C9.90644743,11.7005361 9.28993323,13.2978416 8.65755456,14.8888171 C7.90119382,16.7931121 7.15739711,18.702573 6.36948281,20.5939851 C6.07783159,21.2929467 5.6379153,21.9293911 4.89775386,22.2285521 C4.52306527,22.3804684 4.09885401,22.4744116 3.69538615,22.4800717 C2.43656004,22.496558 1.34938914,22.076014 0.606883906,21.0076094 C0.0164703538,20.1579432 -0.127936223,19.2123249 0.15741704,18.2119701 C0.421309417,17.2858994 0.685249626,16.3598764 0.962072745,15.4374569 C1.2243707,14.5633642 1.50320279,13.6939432 1.77548181,12.8224813 C2.02924963,12.0110972 2.26649925,11.1935745 2.54166418,10.3895406 C3.08319283,8.80671251 3.51987245,7.17641854 4.37805282,5.72450822 C4.96519781,4.7310573 5.91633284,4.19396114 7.00713901,3.86077529 C8.14759542,3.51293672 9.11910713,3.9508281 10.0927872,4.43532436 C10.4620229,4.618571 10.8263797,4.81454111 11.2053572,4.97419033 C11.7340827,5.19618137 12.2161555,5.05564923 12.6432207,4.70781066 C12.9927334,4.4232865 13.345435,4.13898555 13.6676034,3.82435874 C14.4724664,3.03861286 16.2111649,2.89301046 17.0608311,3.80742601 C17.2565301,4.018001 17.4874659,4.19563528 17.7035735,4.38645541 C18.1483528,4.77932038 18.3322691,4.81940409 18.8468839,4.52899651 C20.0706966,3.83799103 21.3384833,3.93367215 22.5847135,4.37663378 C23.307703,4.63387743 23.7404763,5.24809567 24.0168211,5.97556552 C24.4233024,7.04661684 24.2528909,8.08082113 23.8455645,9.08753762 C23.096283,10.9395835 22.2801794,12.7642212 21.5490583,14.6232028 C21.1156951,15.7260149 20.749712,16.8599821 20.43829,18.0029576 C20.3114539,18.4687514 20.3106248,19.0210583 20.4289467,19.4890523 C20.6079681,20.197437 21.2568012,20.4295366 21.9130324,20.5126697 C22.9123667,20.6393463 23.8929985,20.4536124 24.8504155,20.1888271 C25.6680977,19.9635835 26.4731679,19.6855805 27.2717329,19.3969905 C27.6570404,19.257702 28.0161196,19.0438744 28.3839043,18.8571041 C28.6985311,18.698013 28.7228301,18.4650842 28.5570264,18.1721893 C28.2183239,17.5744574 27.8620987,16.9842352 27.5637349,16.3659352 C26.9328231,15.0590374 26.4136801,13.7104136 26.5521714,12.2200458 C26.673156,10.9155874 27.1442272,9.78264076 28.3478386,9.09606776 C30.1247554,8.08327653 31.5667005,8.36292177 32.8727693,9.87608969 C34.002288,11.1850603 34.3747763,12.7607294 33.8898655,14.4489008 C33.618575,15.392845 33.2304295,16.3052516 32.8601574,17.2181046 C32.7577,17.470852 32.8171719,17.6327494 32.9770762,17.7816044 C33.7251141,18.4803428 34.5780329,19.023131 35.524863,19.4071948 C35.8818695,19.5526378 36.2592845,19.6609626 36.6376562,19.7369686 C37.4514639,19.9000618 38.2064534,19.7063876 38.8844165,19.2465252 C39.2072546,19.0277708 39.2143179,18.8233503 38.9903338,18.5180668 C37.4308959,16.3911908 36.8136163,14.0238764 37.2822162,11.4225172 C37.4577937,10.4485979 37.908297,9.52868161 38.9536941,9.24823916 C39.5998964,9.07470254 40.3302202,9.08203687 41.0021405,9.16759342 C42.0941266,9.30646736 43.0830812,9.74230194 43.7539492,10.6824355 C44.5588122,11.8105032 44.7643328,13.0450782 44.4179452,14.393702 C44.1692317,15.3623438 43.6611221,16.1863558 43.1016403,16.9867225 C42.8800797,17.3040279 42.8715336,17.5964923 43.1735805,17.8086936 C43.6387205,18.1355815 44.111418,18.493991 44.6370503,18.6832646 C45.7791968,19.0942422 46.9643129,19.0583996 48.1149736,18.6885421 C49.3740229,18.2830174 50.2586866,17.4478605 50.7632088,16.208582 C51.3658037,14.7265531 51.373154,13.1742103 51.3426208,11.6162551 C51.3183697,10.3989317 51.2758306,9.18171998 51.2397489,7.96399801 C51.2269297,7.52918386 51.1569028,7.5039442 50.7423857,7.58827304 C49.6503996,7.80887693 48.5528969,8.00416143 47.4569885,8.20454808 C47.1113503,8.26728849 46.7626667,8.30984355 46.4172516,8.37215346 C45.6643508,8.50761535 45.0431809,8.19826607 45.0006258,7.31758844 C44.9572257,6.43005481 44.8287474,5.54676233 44.7374988,4.66122172 C44.7321734,4.61138017 44.7280917,4.56125162 44.7254609,4.51093174 C44.6745192,3.46883508 44.9266926,2.90201893 46.1777857,2.947428 C47.4697917,2.99490982 48.7617977,3.03746487 50.0522093,3.10525959 C50.6869796,3.13826408 50.9102143,2.97837569 50.951988,2.3484843 C50.9841953,1.85947583 50.9978276,1.3700847 51.0283448,0.881283508 C51.0741844,0.148137519 51.2413433,-0.0260209268 51.9861286,0.00310911809 C52.4313702,0.0206317887 52.8787803,0.0982321873 53.3142481,0.196177379 C53.9274459,0.33406278 54.2488331,0.765831589 54.2913722,1.37576084 C54.3258117,1.87554758 54.3113662,2.37922471 54.303442,2.88062182 C54.2969048,3.23539611 54.4070792,3.42581764 54.8048072,3.46596512 C55.952869,3.58283607 57.0964185,3.74253313 58.2420409,3.87855306 C58.7829796,3.94293572 59.0865411,4.16189736 59.1596931,4.56408969 C59.2865929,5.26263677 59.1356173,5.74102641 58.6083747,5.93187843 C57.8708919,6.1986567 57.1084405,6.4019133 56.3459571,6.58987942 C55.8123687,6.72167414 55.2596153,6.7780847 54.7172895,6.87770404 C54.3533632,6.94430294 54.1555914,7.13550573 54.15886,7.54488889 C54.1724763,9.56638964 54.1266687,11.5897399 54.1853592,13.6093114 C54.2158764,14.669138 54.3749676,15.7304155 54.8264594,16.7203906 C55.1911829,17.5222083 55.814011,17.8380947 56.6802113,17.692843 C57.9512347,17.4796213 59.1163568,17.0332157 60.1312367,16.2289746 C60.6943697,15.7827603 61.0648012,15.2367195 61.0928789,14.4825909 C61.1436293,13.1025889 61.2118067,11.7230174 61.2928351,10.3450404 C61.316289,9.94748779 61.3613473,9.53526657 61.4938754,9.16442053 C61.5677768,8.95869258 61.8376642,8.68663677 62.0256303,8.68112008 C63.0638525,8.6497419 64.109154,8.63937818 65.1424813,8.7290005 C65.7925421,8.78518784 66.2390912,9.39334728 66.2046996,10.0815147 C66.1581106,11.0449905 66.0335067,12.0050543 65.9418276,12.9665531 C65.828576,14.152849 65.7241734,15.3399741 65.5980708,16.5246756 C65.4703577,17.7238545 66.4295286,18.3185092 67.3785909,18.3301166 C68.1747643,18.3396831 68.6447833,18.042563 68.9830713,17.2000239 C69.3333652,16.3279402 69.5415486,15.3825451 69.6926198,14.4501445 C69.9063039,13.1263936 70.0074539,11.7844664 70.1651261,10.4514838 C70.2293014,9.9070852 70.569152,9.48856602 70.9917848,9.39774788 C71.4804106,9.29286697 72.1214788,9.49106926 72.281415,9.93768211 C72.4156173,10.3109517 72.3850523,10.7669875 72.3383358,11.1763229 C72.1656921,12.6944335 71.9166756,14.2049547 71.7744694,15.7260787 C71.6868719,16.6604723 72.2107185,17.3256482 73.1185491,17.6018017 C73.5709337,17.7390653 74.0401395,17.8476134 74.5086437,17.9017917 C75.331428,17.9958784 75.9140767,17.3952606 76.0859552,16.4600698 C76.23143,15.6737499 76.2507544,14.8641515 76.3214509,14.0644225 C76.4041375,13.1147384 76.4161276,12.1528411 76.5784235,11.216853 C76.8171241,9.831143 77.7122152,8.57415047 79.3706507,8.170858 C80.3661106,7.92852217 81.369718,7.89961535 82.3636153,8.01446139 C83.8790314,8.18877927 85.4641714,9.21890184 85.9486996,10.9596094 C86.3166437,12.2829776 86.1704195,13.5613513 85.7375027,14.8344315 C85.2360419,16.3097319 84.3194101,17.45942 83.0393782,18.3349636 C82.9211998,18.4156253 82.8521614,18.5687534 82.7613433,18.6885102 C82.922013,18.7595894 83.0843408,18.8945889 83.244293,18.8917509 C84.7741704,18.8683448 86.2169925,18.5184335 87.5380648,17.7170623 C87.8361415,17.5366059 88.1608291,17.3999322 88.4756632,17.2502322 C88.7649228,17.1131759 88.9353662,17.2755037 88.8548959,17.5249826 C88.7206457,17.9431031 88.559147,18.3842631 88.2917628,18.7220568 C87.1595974,20.1532237 85.6152905,20.8393503 83.829142,20.9595217 C83.0715057,21.0103996 82.3025491,20.9092018 81.5391888,20.8670294 C80.9630135,20.8348221 80.3879063,20.7847414 79.8117628,20.7456781 C79.5193463,20.7265291 79.3504973,20.8493154 79.2773293,21.1515536 C78.8186627,23.0445919 78.5759442,24.9695506 78.3380887,26.8996911 C78.1879581,28.1149258 77.9612476,29.3260787 77.6704893,30.5152765 C77.5130244,31.1604584 77.0091878,31.6052696 76.3116293,31.7176921 C75.8947045,31.784865 75.5861684,31.6044245 75.4462581,31.2158326 C75.3283508,30.8881634 75.2182083,30.5441993 75.1901305,30.2008411 C75.05258,28.5061644 75.1087992,26.8155855 75.3338675,25.1290563 C75.4479482,24.2710354 75.524273,23.4081196 75.6222661,22.5482491 C75.6914958,21.9501186 75.7815805,21.353997 75.8378156,20.7546388 C75.8819492,20.2705571 75.7717748,20.156285 75.3082611,20.0640638 C74.3495845,19.8728132 73.3904136,19.6848151 72.4358665,19.4734429 C71.7873842,19.3292436 71.2818894,19.5589357 70.8423717,20.0058037 C70.2583518,20.5998844 69.6130742,21.1161734 68.8473224,21.4499651 C67.9225272,21.8534011 66.942294,21.7686577 65.9910314,21.6179532 C64.6187304,21.399438 63.5226467,20.6778994 62.743422,19.5200638 C62.5014051,19.1608411 62.32629,18.7555396 62.1366657,18.3638545 C62.030573,18.1445421 61.9350673,18.0592247 61.6779033,18.1903657 C60.7658475,18.6547245 59.8571878,19.1314718 58.9156672,19.5292317 C57.8670015,19.9724325 56.7541764,20.1281754 55.6397728,19.817423 C54.553431,19.5139412 53.7202511,18.8145969 53.0284325,17.9404723 C52.8427304,17.7062202 52.660281,17.4703737 52.3726637,17.1019671 Z M83.6618396,12.7546228 C83.6498495,12.6043328 83.6498495,12.4530065 83.6249447,12.305156 C83.4858794,11.4489367 82.6261844,11.065702 81.9335845,11.581991 C81.6203926,11.8153503 81.3358366,12.1218455 81.1221365,12.4497857 C80.40857,13.5436213 80.0863857,14.7967554 79.7642013,16.0429377 C79.6831091,16.3559701 79.6266826,16.6869397 79.6331878,17.008279 C79.6452895,17.606856 79.9972257,17.7828161 80.498559,17.4594041 C81.5390772,16.7881216 82.3097877,15.8570125 82.9604225,14.8219791 C83.3557907,14.1932357 83.6795855,13.5299412 83.6618396,12.7546228 Z M42.8324225,13.3584614 C42.8415585,12.7635516 42.7026846,12.2130782 42.26457,11.7851998 C42.0216761,11.5481096 41.717987,11.444871 41.369718,11.553435 C40.9473244,11.6843528 40.7190035,11.9977997 40.6872427,12.5179472 C40.6257778,13.5256203 41.0585351,14.391422 41.5039522,15.243719 C41.7332935,15.6826308 41.9512028,15.6687434 42.2474938,15.2631071 C42.6619472,14.6958924 42.8236532,14.0511091 42.8324225,13.3584614 Z M32.5597529,13.165999 C32.4496104,12.8016104 32.3767294,12.419986 32.219424,12.0768191 C32.0186069,11.6401395 31.5009467,11.4436273 31.0431251,11.5633842 C30.5585969,11.6904913 30.3669955,11.921427 30.4172676,12.5183458 C30.4614649,13.0378874 30.5808391,13.55601 30.7190912,14.0606597 C30.8204963,14.4315536 30.9767334,14.7950653 31.161431,15.1329387 C31.4099372,15.5880977 31.6695884,15.5925939 31.9139651,15.1518804 C32.2508022,14.5451719 32.5111071,13.9079621 32.5597529,13.165999 Z" id="Shape"></path>
            </g>
        </g>
    </g>
</svg>

<svg class="icon icon-meetup" width="89" height="32" xmlns="http://www.w3.org/2000/svg"><path d="M52.373 17.102c-.123.185-.2.311-.286.433-.794 1.139-1.686 2.178-2.902 2.897-1.63.963-3.395 1.36-5.236.962-.945-.205-1.824-.734-2.713-1.156-.205-.096-.317-.099-.5.009-.763.45-1.505.954-2.313 1.304-1.434.62-2.944.969-4.504.556-.979-.259-1.825-.81-2.59-1.473-.541-.47-.576-.47-1.126-.017-.989.813-2.13 1.338-3.325 1.771-1.482.538-3.01.868-4.572 1.023-1.907.189-3.676-.135-4.966-1.703-1.034-1.256-1.31-2.713-.678-4.227.693-1.659 1.494-3.272 2.247-4.906.392-.85.787-1.7 1.168-2.557.07-.157.098-.34.106-.514.014-.319.08-.668-.29-.86-.377-.196-.821-.16-1.098.189a8.915 8.915 0 0 0-.91 1.412c-.855 1.64-1.681 3.294-2.514 4.944-.625 1.238-1.238 2.48-1.87 3.715-.597 1.17-1.72 1.616-2.937 1.161-.41-.154-.667-.456-.736-.916-.098-.653.116-1.237.347-1.822.506-1.278 1.018-2.554 1.524-3.832.27-.686.541-1.372.796-2.064.178-.483.231-.996.023-1.472-.16-.366-.477-.63-.92-.591-.485.043-.866.296-1.049.746-.643 1.587-1.26 3.184-1.891 4.775-.757 1.904-1.5 3.814-2.289 5.705-.291.699-.731 1.335-1.471 1.635a3.403 3.403 0 0 1-1.203.251c-1.258.017-2.346-.404-3.088-1.472-.59-.85-.735-1.796-.45-2.796.264-.926.528-1.852.805-2.775.262-.874.541-1.743.813-2.615.254-.81.491-1.628.767-2.432.541-1.583.978-3.214 1.836-4.665.587-.994 1.538-1.531 2.63-1.864 1.14-.348 2.111.09 3.085.574.369.184.733.38 1.112.54.53.221 1.011.08 1.438-.267.35-.285.702-.569 1.025-.884.804-.785 2.543-.931 3.393-.017.196.211.426.389.643.58.444.392.628.432 1.143.142 1.224-.691 2.491-.595 3.738-.152.723.257 1.155.871 1.432 1.599.406 1.07.236 2.105-.171 3.112-.75 1.852-1.566 3.676-2.297 5.535a32.885 32.885 0 0 0-1.11 3.38 3.049 3.049 0 0 0-.01 1.486c.179.708.828.94 1.484 1.024 1 .126 1.98-.06 2.937-.324a32.714 32.714 0 0 0 2.422-.792c.385-.14.744-.353 1.112-.54.315-.159.339-.392.173-.685-.339-.598-.695-1.188-.993-1.806-.631-1.307-1.15-2.656-1.012-4.146.121-1.304.592-2.437 1.796-3.124 1.777-1.013 3.219-.733 4.525.78 1.13 1.31 1.502 2.885 1.017 4.573-.271.944-.66 1.856-1.03 2.77-.102.252-.043.414.117.563a8.25 8.25 0 0 0 2.548 1.625c.357.146.734.254 1.113.33.813.163 1.568-.03 2.246-.49.323-.22.33-.424.106-.729-1.56-2.127-2.176-4.494-1.708-7.095.176-.974.626-1.894 1.672-2.175.646-.173 1.376-.166 2.048-.08 1.092.138 2.081.574 2.752 1.514.805 1.129 1.01 2.363.664 3.712-.249.968-.757 1.792-1.316 2.593-.222.317-.23.61.072.822.465.327.937.685 1.463.874 1.142.411 2.327.375 3.478.006 1.259-.406 2.144-1.241 2.648-2.48.603-1.482.61-3.035.58-4.593-.025-1.217-.067-2.434-.103-3.652-.013-.435-.083-.46-.498-.376-1.092.22-2.19.416-3.285.617-.346.062-.694.105-1.04.167-.753.136-1.374-.174-1.416-1.054-.044-.888-.172-1.771-.264-2.657l-.012-.15c-.05-1.042.202-1.609 1.453-1.564 1.292.048 2.584.09 3.874.158.635.033.858-.127.9-.757.032-.489.046-.978.076-1.467.046-.733.213-.907.958-.878.445.018.893.095 1.328.193.613.138.935.57.977 1.18.035.5.02 1.003.012 1.505-.006.354.104.545.502.585 1.148.117 2.291.277 3.437.413.541.064.845.283.918.685.127.699-.024 1.177-.552 1.368-.737.267-1.5.47-2.262.658-.534.132-1.086.188-1.629.288-.364.066-.561.258-.558.667.013 2.021-.032 4.045.026 6.064.03 1.06.19 2.121.641 3.111.365.802.988 1.118 1.854.973 1.271-.213 2.436-.66 3.451-1.464.563-.446.934-.992.962-1.746.05-1.38.119-2.76.2-4.138.023-.398.068-.81.2-1.18.075-.206.345-.478.533-.484 1.038-.031 2.083-.042 3.116.048.65.056 1.097.664 1.063 1.353-.047.963-.171 1.923-.263 2.885-.113 1.186-.218 2.373-.344 3.558-.128 1.199.832 1.794 1.78 1.805.797.01 1.267-.287 1.605-1.13.35-.872.559-1.817.71-2.75.213-1.324.314-2.666.472-3.999.064-.544.404-.962.827-1.053.488-.105 1.13.093 1.29.54.134.373.103.829.056 1.238-.172 1.518-.421 3.029-.564 4.55-.087.934.437 1.6 1.345 1.876.452.137.921.246 1.39.3.822.094 1.405-.507 1.577-1.442.145-.786.165-1.596.235-2.396.083-.95.095-1.911.257-2.847.24-1.386 1.134-2.643 2.793-3.046.995-.242 1.999-.271 2.993-.157 1.515.175 3.1 1.205 3.585 2.946.368 1.323.221 2.601-.211 3.874-.502 1.476-1.419 2.625-2.699 3.501-.118.08-.187.234-.278.354.161.07.323.206.483.203 1.53-.024 2.973-.374 4.294-1.175.298-.18.623-.317.938-.467.289-.137.46.026.379.275-.134.418-.296.86-.563 1.197-1.132 1.431-2.677 2.117-4.463 2.238-.757.05-1.526-.05-2.29-.093-.576-.032-1.151-.082-1.727-.121-.293-.02-.462.103-.535.406-.458 1.893-.701 3.818-.939 5.748a31.534 31.534 0 0 1-.668 3.615c-.157.645-.66 1.09-1.358 1.203-.417.067-.726-.114-.866-.502-.118-.328-.228-.672-.256-1.015a23.727 23.727 0 0 1 .144-5.072c.114-.858.19-1.72.288-2.58.07-.599.16-1.195.216-1.794.044-.484-.066-.599-.53-.69-.958-.192-1.918-.38-2.872-.592-.649-.144-1.154.086-1.594.533-.584.594-1.229 1.11-1.995 1.444-.924.403-1.905.319-2.856.168-1.372-.219-2.468-.94-3.248-2.098-.242-.36-.417-.764-.606-1.156-.106-.22-.202-.305-.46-.174-.911.465-1.82.941-2.761 1.34-1.049.442-2.162.598-3.276.287-1.087-.303-1.92-1.002-2.612-1.877-.185-.234-.368-.47-.655-.838zm31.289-4.347c-.012-.15-.012-.302-.037-.45-.14-.856-.999-1.24-1.691-.723-.314.233-.598.54-.812.868-.713 1.094-1.036 2.347-1.358 3.593a3.615 3.615 0 0 0-.13.965c.011.599.363.775.865.451 1.04-.67 1.81-1.602 2.461-2.637.396-.629.72-1.292.702-2.067zm-40.83.603c.01-.594-.13-1.145-.567-1.573-.243-.237-.547-.34-.895-.232-.423.131-.651.445-.683.965-.061 1.008.372 1.873.817 2.726.23.439.447.425.743.02.415-.568.577-1.213.585-1.906zm-10.272-.192c-.11-.364-.183-.746-.34-1.09-.201-.436-.72-.632-1.177-.513-.484.127-.676.358-.626.955.044.52.164 1.038.302 1.543.101.37.258.734.442 1.072.249.455.509.46.753.019.337-.607.597-1.244.646-1.986z" fill-rule="nonzero" fill="#FFF"/></svg>
